X:7930
T:Gammel polsdans
C:anon.
O:Norway
R:Pols
Z:Transcribed by Frank Nordberg - http://www.musicaviva.com
F:http://abc.musicaviva.com/tunes/norway/gammel-polsdans/gammel-polsdans-1.abc
M:3/4
L:1/8
K:Ddor
"Dm"a2 (f>a) f>a|"A7"a<g (e>g) e>g|"Dm/A"(c<f) (d>f) "A7"e>(^c|"Dm"d>)(e f2) "A7"e2|
"Dm"a2 (f>a) f>a|"A7"a<g (e>g) e>g|"Dm/A"(c<f) (d>f) "A7"e>^c|[1"Dm"d2 d3 z:|[2"Dm"d2 d3 z/ f/|
|:"A7"(f<e) (^c>d) e>f|"A7"(f<e) (^c>d) e>f|"Dm/A"(g<a) (fd) "A7"e>^c|"Em"(B<G) "A7"A3 z/ f/|
"A7"(f<e) (^c>d) e>f|"A7"(f<e) (^c>d) e>f|"Dm/A"(g<a) (fd) "A7"e>^c|[1{^c}"Dm"d2 d3 z/ f/:|[2"Dm"d2 d3 z|]
W:
W:
W:  From Musica Viva - http://www.musicaviva.com
W:  the Internet center for free sheet music downloads.
